X: 6
T: The Black Rogue
R: jig
M: 6/8
L: 1/8
K: Dmaj
d | c2 A ABA | c2 A A2 d | c2 A AGA | F2 D D2 d | c2 A ABA | c2 A A2 e | f2 d gec | d3 D3:|e | fgf gab | agf efg | f2 d ded | d2 A A2 e | fgf gab | agf efg | f2 d gec | d3 d3:|


Tune 1076	Setting 14310

